flaticon/technology/projector.svg

<svg xmlns="http://www.w3.org/2000/svg" width="32" height="32" viewBox="0 0 24 24">
    <path d="M 23.699219 9.476562 C 23.695312 9.457031 23.691406 9.441406 23.683594 9.425781 C 22.957031 7.429688 21.042969 6 18.800781 6 L 5.199219 6 C 2.332031 6 0 8.332031 0 11.199219 C 0 13.933594 2.121094 16.175781 4.800781 16.378906 L 4.800781 16.894531 C 4.800781 17.503906 5.296875 18 5.90625 18 L 6.894531 18 C 7.503906 18 8 17.503906 8 16.894531 L 8 16.398438 L 16.398438 16.398438 L 16.398438 16.894531 C 16.398438 17.503906 16.894531 18 17.503906 18 L 18.496094 18 C 19.105469 18 19.601562 17.503906 19.601562 16.894531 L 19.601562 16.332031 C 21.492188 16.039062 23.042969 14.726562 23.683594 12.972656 C 23.691406 12.957031 23.695312 12.941406 23.699219 12.925781 C 23.890625 12.382812 24 11.804688 24 11.199219 C 24 10.59375 23.890625 10.015625 23.699219 9.476562 Z M 7.199219 16.894531 C 7.199219 17.0625 7.0625 17.199219 6.894531 17.199219 L 5.90625 17.199219 C 5.738281 17.199219 5.601562 17.0625 5.601562 16.894531 L 5.601562 16.398438 L 7.199219 16.398438 Z M 8 15.601562 L 5.199219 15.601562 C 3.496094 15.601562 2.015625 14.621094 1.285156 13.199219 L 3.601562 13.199219 C 3.820312 13.199219 4 13.019531 4 12.800781 C 4 12.578125 3.820312 12.398438 3.601562 12.398438 L 0.96875 12.398438 C 0.898438 12.140625 0.84375 11.875 0.820312 11.601562 L 3.601562 11.601562 C 3.820312 11.601562 4 11.421875 4 11.199219 C 4 10.980469 3.820312 10.800781 3.601562 10.800781 L 0.820312 10.800781 C 0.84375 10.523438 0.898438 10.257812 0.972656 10 L 3.601562 10 C 3.820312 10 4 9.820312 4 9.601562 C 4 9.378906 3.820312 9.199219 3.601562 9.199219 L 1.285156 9.199219 C 2.015625 7.777344 3.492188 6.800781 5.199219 6.800781 L 9.242188 6.800781 C 7.777344 7.722656 6.800781 9.347656 6.800781 11.199219 C 6.800781 13.054688 7.777344 14.679688 9.242188 15.601562 Z M 7.601562 11.199219 C 7.601562 8.773438 9.574219 6.800781 12 6.800781 C 14.425781 6.800781 16.398438 8.773438 16.398438 11.199219 C 16.398438 13.625 14.425781 15.601562 12 15.601562 C 9.574219 15.601562 7.601562 13.625 7.601562 11.199219 Z M 18.800781 16.894531 C 18.800781 17.0625 18.664062 17.199219 18.496094 17.199219 L 17.503906 17.199219 C 17.335938 17.199219 17.199219 17.0625 17.199219 16.894531 L 17.199219 16.398438 L 18.800781 16.398438 Z M 20.398438 11.601562 L 23.179688 11.601562 C 23.15625 11.875 23.101562 12.140625 23.027344 12.398438 L 20.398438 12.398438 C 20.179688 12.398438 20 12.578125 20 12.800781 C 20 13.019531 20.179688 13.199219 20.398438 13.199219 L 22.714844 13.199219 C 21.984375 14.621094 20.507812 15.601562 18.800781 15.601562 L 14.757812 15.601562 C 16.222656 14.679688 17.199219 13.054688 17.199219 11.199219 C 17.199219 9.347656 16.222656 7.722656 14.757812 6.800781 L 18.800781 6.800781 C 20.503906 6.800781 21.984375 7.777344 22.714844 9.199219 L 20.398438 9.199219 C 20.179688 9.199219 20 9.378906 20 9.601562 C 20 9.820312 20.179688 10 20.398438 10 L 23.03125 10 C 23.101562 10.257812 23.15625 10.523438 23.179688 10.800781 L 20.398438 10.800781 C 20.179688 10.800781 20 10.980469 20 11.199219 C 20 11.421875 20.179688 11.601562 20.398438 11.601562 Z M 20.398438 11.601562"/>
    <path d="M 12 7.601562 C 10.015625 7.601562 8.398438 9.214844 8.398438 11.199219 C 8.398438 13.183594 10.015625 14.800781 12 14.800781 C 13.984375 14.800781 15.601562 13.183594 15.601562 11.199219 C 15.601562 9.214844 13.984375 7.601562 12 7.601562 Z M 12 14 C 10.457031 14 9.199219 12.742188 9.199219 11.199219 C 9.199219 9.65625 10.457031 8.398438 12 8.398438 C 13.542969 8.398438 14.800781 9.65625 14.800781 11.199219 C 14.800781 12.742188 13.542969 14 12 14 Z M 12 14"/>
    <path d="M10.800781 10.398438C10.902344 10.398438 11.007812 10.355469 11.085938 10.285156 11.15625 10.207031 11.199219 10.105469 11.199219 10 11.199219 9.894531 11.15625 9.792969 11.085938 9.714844 10.9375 9.566406 10.667969 9.566406 10.515625 9.714844 10.445312 9.792969 10.398438 9.894531 10.398438 10 10.398438 10.105469 10.445312 10.207031 10.515625 10.285156 10.59375 10.355469 10.695312 10.398438 10.800781 10.398438zM13.882812 10.917969C13.726562 10.761719 13.472656 10.761719 13.316406 10.917969L11.71875 12.515625C11.5625 12.671875 11.5625 12.925781 11.71875 13.082031 11.796875 13.160156 11.898438 13.199219 12 13.199219 12.101562 13.199219 12.203125 13.160156 12.28125 13.082031L13.882812 11.484375C14.039062 11.328125 14.039062 11.074219 13.882812 10.917969zM13.484375 9.316406C13.328125 9.160156 13.074219 9.160156 12.917969 9.316406L10.117188 12.117188C9.960938 12.273438 9.960938 12.527344 10.117188 12.683594 10.195312 12.761719 10.296875 12.800781 10.398438 12.800781 10.503906 12.800781 10.605469 12.761719 10.683594 12.683594L13.484375 9.882812C13.640625 9.726562 13.640625 9.472656 13.484375 9.316406zM13.484375 9.316406"/>
</svg>

<svg xmlns="http://www.w3.org/2000/svg" width="32" height="32" viewBox="0 0 24 24">
    <path d="M23.7 9.477A5.204 5.204 0 0 0 18.801 6H5.198A5.205 5.205 0 0 0 0 11.2a5.202 5.202 0 0 0 4.8 5.179v.516c0 .609.497 1.105 1.106 1.105h.989C7.504 18 8 17.504 8 16.895v-.497h8.398v.497c0 .609.497 1.105 1.106 1.105h.992c.61 0 1.106-.496 1.106-1.105v-.563a5.207 5.207 0 0 0 4.082-3.36A5.174 5.174 0 0 0 24 11.2c0-.605-.11-1.183-.3-1.722zM7.2 16.895a.305.305 0 0 1-.305.304h-.989a.305.305 0 0 1-.304-.304v-.497h1.597zm.8-1.293H5.2a4.408 4.408 0 0 1-3.915-2.403h2.317a.4.4 0 0 0 0-.8H.969a4.484 4.484 0 0 1-.149-.797h2.782a.401.401 0 0 0 0-.801H.82c.024-.278.078-.543.153-.801h2.629a.4.4 0 0 0 0-.8H1.285A4.4 4.4 0 0 1 5.2 6.8h4.043a5.194 5.194 0 0 0-2.441 4.4c0 1.855.976 3.48 2.441 4.402zm-.398-4.403A4.403 4.403 0 0 1 12 6.801a4.403 4.403 0 0 1 4.398 4.398A4.406 4.406 0 0 1 12 15.602a4.406 4.406 0 0 1-4.398-4.403zM18.8 16.895a.305.305 0 0 1-.305.304h-.992a.305.305 0 0 1-.305-.304v-.497h1.602zm1.597-5.293h2.782c-.024.273-.078.539-.153.796h-2.629a.401.401 0 0 0 0 .801h2.317a4.403 4.403 0 0 1-3.914 2.403h-4.043a5.196 5.196 0 0 0 2.441-4.403 5.194 5.194 0 0 0-2.441-4.398H18.8c1.703 0 3.183.976 3.914 2.398h-2.317a.401.401 0 0 0 0 .801h2.633c.07.258.125.523.149.8h-2.782a.4.4 0 0 0 0 .802zm0 0"/>
    <path d="M12 7.602a3.604 3.604 0 0 0-3.602 3.597A3.608 3.608 0 0 0 12 14.801a3.608 3.608 0 0 0 3.602-3.602A3.604 3.604 0 0 0 12 7.602zM12 14a2.806 2.806 0 0 1-2.8-2.8c0-1.544 1.257-2.802 2.8-2.802s2.8 1.258 2.8 2.801C14.8 12.742 13.544 14 12 14zm0 0"/>
    <path d="M10.8 10.398a.438.438 0 0 0 .286-.113.43.43 0 0 0 .113-.285.43.43 0 0 0-.113-.285.42.42 0 0 0-.57 0 .434.434 0 0 0-.118.285c0 .105.047.207.118.285a.43.43 0 0 0 .285.113zm0 0M13.883 10.918a.4.4 0 0 0-.567 0l-1.597 1.598a.4.4 0 0 0 .281.683c.102 0 .203-.039.281-.117l1.602-1.598a.4.4 0 0 0 0-.566zm0 0M13.484 9.316a.4.4 0 0 0-.566 0l-2.8 2.801a.4.4 0 0 0 .566.567l2.8-2.801a.4.4 0 0 0 0-.567zm0 0"/>
</svg>
